assets/images/arrow_down_black.svg

<svg fill="none" height="40" viewBox="0 0 40 40" width="40" xmlns="http://www.w3.org/2000/svg"><g clip-rule="evenodd" fill="#000" fill-rule="evenodd"><path d="m28.3847 20.365c.1164.1161.2088.254.2718.4059s.0955.3147.0955.4791-.0325.3272-.0955.4791c-.063.1518-.1554.2898-.2718.4059l-7.5 7.5c-.1161.1164-.254.2087-.4059.2718-.1519.063-.3147.0954-.4791.0954s-.3272-.0324-.4791-.0954c-.1518-.0631-.2898-.1554-.4059-.2718l-7.5-7.5c-.2347-.2347-.3666-.5531-.3666-.885 0-.332.1319-.6503.3666-.885s.5531-.3666.885-.3666c.332 0 .6503.1319.885.3666l6.615 6.6175 6.615-6.6175c.1161-.1164.2541-.2088.4059-.2718.1519-.063.3147-.0955.4791-.0955s.3272.0325.4791.0955.2898.1554.4059.2718z"/><path d="m20 10c.3315 0 .6495.1317.8839.3661s.3661.5524.3661.8839v16.25c0 .3315-.1317.6495-.3661.8839s-.5524.3661-.8839.3661-.6495-.1317-.8839-.3661-.3661-.5524-.3661-.8839v-16.25c0-.3315.1317-.6495.3661-.8839s.5524-.3661.8839-.3661z"/></g></svg>

<svg width="40" height="40" viewBox="0 0 40 40" fill="none" xmlns="http://www.w3.org/2000/svg">
<path fill-rule="evenodd" clip-rule="evenodd" d="M28.3847 20.365C28.5011 20.4811 28.5935 20.619 28.6565 20.7709C28.7195 20.9228 28.752 21.0856 28.752 21.25C28.752 21.4144 28.7195 21.5772 28.6565 21.7291C28.5935 21.8809 28.5011 22.0189 28.3847 22.135L20.8847 29.635C20.7686 29.7514 20.6307 29.8437 20.4788 29.9068C20.3269 29.9698 20.1641 30.0022 19.9997 30.0022C19.8353 30.0022 19.6725 29.9698 19.5206 29.9068C19.3688 29.8437 19.2308 29.7514 19.1147 29.635L11.6147 22.135C11.38 21.9003 11.2481 21.5819 11.2481 21.25C11.2481 20.918 11.38 20.5997 11.6147 20.365C11.8494 20.1303 12.1678 19.9984 12.4997 19.9984C12.8317 19.9984 13.15 20.1303 13.3847 20.365L19.9997 26.9825L26.6147 20.365C26.7308 20.2486 26.8688 20.1562 27.0206 20.0932C27.1725 20.0302 27.3353 19.9977 27.4997 19.9977C27.6641 19.9977 27.8269 20.0302 27.9788 20.0932C28.1307 20.1562 28.2686 20.2486 28.3847 20.365Z" fill="black"/>
<path fill-rule="evenodd" clip-rule="evenodd" d="M20 10C20.3315 10 20.6495 10.1317 20.8839 10.3661C21.1183 10.6005 21.25 10.9185 21.25 11.25L21.25 27.5C21.25 27.8315 21.1183 28.1495 20.8839 28.3839C20.6495 28.6183 20.3315 28.75 20 28.75C19.6685 28.75 19.3505 28.6183 19.1161 28.3839C18.8817 28.1495 18.75 27.8315 18.75 27.5L18.75 11.25C18.75 10.9185 18.8817 10.6005 19.1161 10.3661C19.3505 10.1317 19.6685 10 20 10Z" fill="black"/>
</svg>
